nova/resources/svg/fluent/swipe-right.svg

<svg viewBox="0 0 24 24" fill="none" xmlns="http://www.w3.org/2000/svg">
<path d="M5.99664 12C5.99664 12.3797 6.27855 12.6935 6.64432 12.7432L6.74601 12.75H19.4403L17.2237 14.9697C16.9576 15.2359 16.9335 15.6526 17.1511 15.9462L17.2237 16.0303C17.4897 16.2966 17.906 16.3208 18.1994 16.1029L18.2835 16.0303L21.7805 12.5303C22.0466 12.2641 22.0707 11.8474 21.8531 11.5538L21.7805 11.4697L18.2835 7.96967C17.9908 7.67678 17.5163 7.67678 17.2237 7.96967C16.9576 8.23594 16.9335 8.6526 17.1511 8.94621L17.2237 9.03033L19.4403 11.25H6.74601C6.33214 11.25 5.99664 11.5858 5.99664 12ZM2 12C2 14.7614 4.23669 17 6.99579 17C9.13942 17 10.9677 15.6488 11.6767 13.7509L10.0246 13.7507C9.41982 14.7965 8.28989 15.5 6.99579 15.5C5.06442 15.5 3.49874 13.933 3.49874 12C3.49874 10.067 5.06442 8.5 6.99579 8.5C8.2903 8.5 9.42053 9.20396 10.0252 10.2502L11.6771 10.2501C10.9684 8.35172 9.1398 7 6.99579 7C4.23669 7 2 9.23858 2 12Z" fill="currentColor"/>
</svg>

<svg viewBox="0 0 24 24" xmlns="http://www.w3.org/2000/svg"><path d="M5.997 12c0 .38.282.693.647.743l.102.007H19.44l-2.216 2.22a.75.75 0 00-.073.976l.073.084a.75.75 0 00.975.073l.084-.073 3.498-3.5a.75.75 0 00.072-.976l-.072-.084-3.498-3.5a.749.749 0 00-1.132.976l.073.084 2.216 2.22H6.746a.75.75 0 00-.75.75zM2 12c0 2.761 2.237 5 4.996 5a4.998 4.998 0 004.68-3.25h-1.651A3.499 3.499 0 013.499 12a3.499 3.499 0 016.526-1.75h1.652A4.998 4.998 0 006.996 7 4.998 4.998 0 002 12z" fill="currentColor" fill-rule="nonzero"/></svg>
